!!!!SEGMENT: pl-gd--ee-1638--007-003_marenzio-luca--il-terzo-libro-de-madrigalia-a-sei-voci-son-presa-disse.krn
!!!cenid: 15xx:844
!!!COM: Marenzio, Luca
!!!COM-rismID: pe30003955
!!!CDT: ~1553-1599/08/22
!!!CNT: Italian
!!!GTL: Il Terzo Libro de madrigalia a sei voci
!!!OTL: Son presa disse
!!!OMV: 003
!!!PDT: 1585
!!!AGN:
!!!SMS-siglum: PL-GD
!!!SMS-shelfmark: Ee 1638
!!!SMS-variant:
!!!SMS-altvar:
!!!SMS-shelfwork: 007-003 G
!!!NIFC-rismSourceID: 1001202747
!!!NIFC-rismChildID: 990039250
!!!NIFC-islandoraID: pl-gd:57883
!!!URL-pdf-islandora: https://repozytorium.nifc.pl/islandora/object/pl-gd%3A57883/datastream/PDF/view
!!!URL-scan: https://polish.musicsources.pl/pl/lokalizacje/galeria/klocki-introligatorskie/655 @EN{Scan on Polish Music Sources Website} @PL{Skany w portalu Dziedzictwo Muzyki Polskiej w otwartym dostępie}
!!!ONB-nifc: UWAGA: zbiór na stronach: Canto: s. 694-704, Alto: s. 542-552, Tenore: s. 390-400, Basso: s. 237-248, Quinto: s. 85-96, Sesto: s. 3-14. Uwaga: utwory podzielone wg tytułów w spisach treści dostępnych na końcu każdej księgi głosowej.
!!!AIN: 1 alto 1 bass 2 soprn 2 tenor
!!!key: d:dor
**kern	**text	**kern	**text	**kern	**text	**kern	**text	**kern	**text	**kern	**text
*part6	*part6	*part5	*part5	*part4	*part4	*part3	*part3	*part2	*part2	*part1	*part1
*staff6	*staff6	*staff5	*staff5	*staff4	*staff4	*staff3	*staff3	*staff2	*staff2	*staff1	*staff1
*I"BASSO	*	*I"TENORE	*	*I"SESTO	*	*I"ALTO	*	*I"QVINTO	*	*I"CANTO	*
*I'B	*	*I'T	*	*I'V 6	*	*I'A	*	*I'V 5	*	*I'S	*
*Ibass	*	*Itenor	*	*Itenor	*	*Ialto	*	*Isoprn	*	*Isoprn	*
*ICvox	*	*ICvox	*	*ICvox	*	*ICvox	*	*ICvox	*	*ICvox	*
*clefF4	*	*clefC4	*	*clefC4	*	*clefC3	*	*clefC1	*	*clefC1	*
*k[]	*	*k[]	*	*k[]	*	*k[]	*	*k[]	*	*k[]	*
*d:dor	*	*d:dor	*	*d:dor	*	*d:dor	*	*d:dor	*	*d:dor	*
*M2/1	*	*M2/1	*	*M2/1	*	*M2/1	*	*M2/1	*	*M2/1	*
*met(C)	*	*met(C)	*	*met(C)	*	*met(C)	*	*met(C)	*	*met(C)	*
=1-	=1-	=1-	=1-	=1-	=1-	=1-	=1-	=1-	=1-	=1-	=1-
!LO:TX:a:i:t=Seconda parte.	!	!LO:TX:a:i:t=Seconda parte.	!	!LO:TX:a:i:t=Seconda parte.	!	!LO:TX:a:i:t=Seconda parte.	!	!LO:TX:a:i:t=Seconda parte.	!	!LO:TX:a:i:t=Seconda parte.	!
00r	.	1A	Son	00r	.	1e	Son	1r	.	2r	.
.	.	.	.	.	.	.	.	.	.	1a	Son
.	.	1d	pre-	.	.	1.f	pre-	4r	.	.	.
.	.	.	.	.	.	.	.	4f/	Son	.	.
.	.	.	.	.	.	.	.	1a\	pre-	1dd\	pre-
=2-	=2-	=2-	=2-	=2-	=2-	=2-	=2-	=2-	=2-	=2-	=2-
.	.	1A	-ſa	.	.	.	.	.	.	.	.
.	.	.	.	.	.	2e\	-ſa	2a\	-ſa	2cc#X\	-ſa
.	.	1d	diſ-	.	.	4f#X\	diſ-	1a	diſ-	2r	.
.	.	.	.	.	.	2g\	.	.	.	.	.
.	.	.	.	.	.	.	.	.	.	1dd\	diſ-
.	.	.	.	.	.	4f#X\	.	.	.	.	.
=3-	=3-	=3-	=3-	=3-	=3-	=3-	=3-	=3-	=3-	=3-	=3-
00r	.	1G	-ſe	00r	.	1g	-ſe	2b\	-ſe	.	.
.	.	.	.	.	.	.	.	4r	.	2b\	-ſe_e_a
.	.	.	.	.	.	.	.	4dd\	e_a	.	.
.	.	4r	.	.	.	1r	.	8cc\	me	8a\	me
.	.	.	.	.	.	.	.	8b\	ri-	8g\	ri-
.	.	4A\	e_à	.	.	.	.	8cc\	-uol-	8a\	-uol-
.	.	.	.	.	.	.	.	8dd\	-ſe_in	8b\	-ſe_in
.	.	8A\	me	.	.	.	.	4.ee\	gi-	4.ccny\	gi-
.	.	8B\	ri-	.	.	.	.	.	.	.	.
.	.	8c\	-uol-	.	.	.	.	.	.	.	.
.	.	8d\	-ſe in	.	.	.	.	16dd\	.	16b\	.
.	.	.	.	.	.	.	.	16cc\	.	16a\	.
=4-	=4-	=4-	=4-	=4-	=4-	=4-	=4-	=4-	=4-	=4-	=4-
.	.	2e\	gi-	.	.	1r	.	4b\	.	4g#X/	.
!	!	!	!	!	!	!	!	!	!	!LO:SIC:v:t=custos g	!
.	.	.	.	.	.	.	.	4a\	.	2a\	.
!	!	!	!	!	!	!	!	!LO:SIC:v:t=custos cc	!	!	!
.	.	2e\	-ro	.	.	.	.	2b\	.	.	.
!	!	!	!	!	!	!	!	!	!	!LO:LB:g=original	!
.	.	.	.	.	.	.	.	.	.	4g#X/	.
!	!	!	!	!	!	!	!	!LO:LB:g=original	!	!	!
.	.	4r	.	.	.	4r	.	4cc\	-ro	4a\	-ro
.	.	4A/	Ver-	.	.	4c/	Ver-	4a\	Ver-	4e/	Ver-
.	.	4A/	-go-	.	.	4c/	-go-	4a\	-go-	4e/	-go-
!	!	!LO:SIC:v:t=custos E	!	!	!	!	!	!	!	!	!
.	.	4A/	-gno	.	.	4c/	-gno-	4a\	-gno-	4e/	-gno-
!	!	!LO:LB:g=original	!	!	!	!	!	!	!	!	!
=5-	=5-	=5-	=5-	=5-	=5-	=5-	=5-	=5-	=5-	=5-	=5-
00r	.	2E/	ſet-	00r	.	2B/	-ſet-	2g#X/	-ſet-	2e/	-ſet-
.	.	4E/	-ta	.	.	4B/	-ta	4g#/	-ta	4e/	-ta
.	.	2A/	le	.	.	2c/	le	2a\	le	2e/	le
!	!	!	!	!	!	!LO:SIC:v:t=custos f	!	!	!	!	!
.	.	4G/	ri-	.	.	4d\	ri-	4b\	ri-	4gny/	ri-
!	!	!	!	!	!	!LO:LB:g=original	!	!	!	!	!
.	.	8F/	-den-	.	.	2fny\	-den-	8cc\	-den-	8a\	-den-
.	.	8G/	.	.	.	.	.	8b\	.	8b\	.
.	.	8A/	.	.	.	.	.	8a\	.	8cc\	.
.	.	8G/	.	.	.	.	.	8b\	.	8b\	.
=6-	=6-	=6-	=6-	=6-	=6-	=6-	=6-	=6-	=6-	=6-	=6-
.	.	8F/	.	.	.	4f\	-ti	8cc\	.	8a\	.
.	.	8G/	.	.	.	.	.	8b\	.	8b\	.
.	.	8A/	.	.	.	4.e\	ſtel-	4a\	.	8cc\	.
.	.	8B\	.	.	.	.	.	.	.	8dd\	.
.	.	4c\	.	.	.	.	.	8gny\	-ti	4ee\	.
.	.	.	.	.	.	8f\	.	8a\	.	.	.
.	.	4G/	-ti	.	.	2g\	.	4b\	.	4dd\	-ti
.	.	2d\	ſtel-	.	.	.	.	2a\	ſtel-	2dd\	ſtel-
.	.	.	.	.	.	4f#X\	.	.	.	.	.
.	.	2G/	-le	.	.	2g\	-le	2b\	-le	2dd\	-le
=7-	=7-	=7-	=7-	=7-	=7-	=7-	=7-	=7-	=7-	=7-	=7-
00r	.	4r	.	00r	.	4r	.	4r	.	4r	.
.	.	4c\	Da	.	.	4e\	Da	4cc\	Da	4g/	Da
.	.	1c	quai	.	.	1e	quai	1cc	quai	1g	quai
!	!	!	!	!	!	!	!	!LO:SIC:v:t=custos cc	!	!LO:SIC:v:t=custos a	!
.	.	2F/	per	.	.	2fny\	per	2cc\	per	2a\	per
!	!	!	!	!	!	!	!	!LO:LB:g=original	!	!LO:LB:g=original	!
=8-	=8-	=8-	=8-	=8-	=8-	=8-	=8-	=8-	=8-	=8-	=8-
.	.	4.F/	quan-	.	.	4f\	quan-	4.cc\	quan-	4.a\	quan-
.	.	.	.	.	.	4f\	-to	.	.	.	.
!	!	!LO:SIC:v:t=custos A	!	!	!	!	!	!	!	!	!
.	.	8G/	-to	.	.	.	.	8b\	-to	8b\	-to
!	!	!LO:LB:g=original	!	!	!	!	!	!	!	!	!
.	.	4A/	d'ogn'	.	.	4e\	d'ogn'	4a\	d'ogn'	4cc#X\	d'ogn'
.	.	4D/	in-	.	.	4f\	in-	4a\	in-	4dd\	in-
.	.	2E/	-tor-	.	.	4e\	-tor-	2g/	-tor-	4b\	-tor-
.	.	.	.	.	.	4g\	-no	.	.	4ee\	-no
.	.	2C/	-no	.	.	4.g\	mi-	2e/	-no	4.ee\	mi-
.	.	.	.	.	.	16f\	.	.	.	16dd\	.
.	.	.	.	.	.	16e\	.	.	.	16cc#\	.
=9-	=9-	=9-	=9-	=9-	=9-	=9-	=9-	=9-	=9-	=9-	=9-
00r	.	1G	mi-	00r	.	4d\	.	1g	mi-	4b\	.
!	!	!	!	!	!	!LO:SIC:v:t=custos d	!	!	!	!	!
.	.	.	.	.	.	4c\	.	.	.	4a\	.
!	!	!	!	!	!	!LO:LB:g=original	!	!	!	!	!
.	.	.	.	.	.	2d\	.	.	.	2b\	.
.	.	4D/	-ro	.	.	2d\	-ro	4f/	-ro	1a	-ro
.	.	4d\	Non	.	.	.	.	4f/	Non	.	.
.	.	4.c\	veg-	.	.	2r	.	4.e/	veg-	.	.
.	.	8c\	-gio	.	.	.	.	8e/	-gio	.	.
=10-	=10-	=10-	=10-	=10-	=10-	=10-	=10-	=10-	=10-	=10-	=10-
.	.	4B\	le	.	.	1r	.	4d/	le	4r	.
.	.	4B\	piu_ho-	.	.	.	.	2g/	piu_ho-	4dd\	Non
.	.	2A/	-ne-	.	.	.	.	.	.	4.ccny\	veg-
.	.	.	.	.	.	.	.	4f#X/	-ne-	.	.
.	.	.	.	.	.	.	.	.	.	8cc\	-gio
.	.	4G/	-ſte	.	.	4r	.	2g/	-ſte	4b\	le
.	.	4G/	Non	.	.	2d\	Non	.	.	4b\	piu_ho-
.	.	4.F/	veg-	.	.	.	.	4r	.	2a\	-ne-
.	.	.	.	.	.	4.c/	veg-	4a\	Non	.	.
.	.	8F/	-gio	.	.	.	.	.	.	.	.
=11-	=11-	=11-	=11-	=11-	=11-	=11-	=11-	=11-	=11-	=11-	=11-
!	!	!	!	!	!	!	!	!	!	!LO:SIC:v:t=custos a	!
00r	.	4E/	le	00r	.	.	.	4.g/	veg-	2ee\	-ſte
.	.	.	.	.	.	8c/	-gio	.	.	.	.
!	!	!LO:SIC:v:t=custos D	!	!	!	!	!	!	!	!	!
.	.	4E/	piu_ho-	.	.	4.B/	le	.	.	.	.
.	.	.	.	.	.	.	.	8g/	-gio	.	.
!	!	!LO:LB:g=original	!	!	!	!	!	!	!	!LO:LB:g=original	!
.	.	2D/	-ne-	.	.	.	.	4fny/	le	4r	.
.	.	.	.	.	.	8B/	piu_ho-	.	.	.	.
!	!	!	!	!	!	!	!	!LO:SIC:v:t=custos f	!	!	!
.	.	.	.	.	.	2A/	-ne-	4f/	piu_ho-	4a\	e
!	!	!	!	!	!	!	!	!LO:LB:g=original	!	!	!
.	.	2D/	-ſt'_e	.	.	.	.	4.f/	-ne-	2a\	le
.	.	.	.	.	.	4d\	ſt'_e	.	.	.	.
.	.	.	.	.	.	.	.	8f/	-ſte_e	.	.
.	.	4A/	le	.	.	4c/	le	4e/	le	4a\	piu
.	.	4F/	piu	.	.	4A/	piu	4d/	piu	2a\	bel-
=12-	=12-	=12-	=12-	=12-	=12-	=12-	=12-	=12-	=12-	=12-	=12-
.	.	1E	bel-	.	.	1B	bel-	1e	bel-	.	.
.	.	.	.	.	.	.	.	.	.	8g#X/	.
.	.	.	.	.	.	.	.	.	.	8f#X/	.
.	.	.	.	.	.	.	.	.	.	2g#X/	.
.	.	1A	-le	.	.	1c	-le	1e	-le	2.a\	-le
.	.	.	.	.	.	.	.	.	.	8gny/	.
.	.	.	.	.	.	.	.	.	.	8fny/	.
=13-	=13-	=13-	=13-	=13-	=13-	=13-	=13-	=13-	=13-	=13-	=13-
1A	L'al-	0r	.	1c	L'al-	2r	.	2r	.	1e	.
.	.	.	.	.	.	1c	L'al-	1a	L'al-	.	.
1E	-ma	.	.	1e	-ma	.	.	.	.	1r	.
.	.	.	.	.	.	2B/	-ma	2g#X/	-ma	.	.
=14-	=14-	=14-	=14-	=14-	=14-	=14-	=14-	=14-	=14-	=14-	=14-
1D	mia	1d	l'al-	1f	mia	2r	.	0a	mia	2r	.
.	.	.	.	.	.	1f	L'al-	.	.	1dd	l'al-
1r	.	1A	-ma	1r	.	.	.	.	.	.	.
.	.	.	.	.	.	2e\	-ma	.	.	2cc#X\	-ma
=15-	=15-	=15-	=15-	=15-	=15-	=15-	=15-	=15-	=15-	=15-	=15-
!	!	!	!	!	!	!LO:SIC:v:t=custos e	!	!	!	!	!
4r	.	2G/	mia_all'	4r	.	2g\	mia	4r	.	2dd\	mia
4G\	all'	.	.	4d\	all'	.	.	4b\	all'	.	.
!	!	!	!	!	!	!LO:LB:g=original	!	!	!	!	!
2C/	hor	2G/	hor	2c\	hor	2e\	all'	2ee\	hor	2r	.
4BB/	ac-	4G/	ac-	4d\	ac-	4g\	hor	4dd\	ac-	1r	.
2C/	-colt'	2E/	-colt'	2e\	-colt'	2g\	ac-	2cc\	-colt'	.	.
!	!	!	!	!LO:SIC:v:t=custos d	!	!	!	!	!	!	!
4GG/	in	4G/	in	4d\	in	4g\	-colt'	4b\	in	.	.
!	!	!	!	!LO:LB:g=original	!	!	!	!	!	!	!
=16-	=16-	=16-	=16-	=16-	=16-	=16-	=16-	=16-	=16-	=16-	=16-
!LO:SIC:v:t=custos AA	!	!	!	!	!	!	!	!	!	!	!
2D/	vn	2A/	vn	4d\	un	2f\	in	2a\	un	4r	.
.	.	.	.	4D/	ſo-	.	.	.	.	4a\	ſo-
!LO:LB:g=original	!	!	!	!	!	!	!	!	!	!	!
4r	.	2r	.	2A/	-ſpi-	4r	.	4r	.	2ccny\	-ſpi-
4AA/	ſo-	.	.	.	.	4e\	un	4a\	ſo-	.	.
2E\	-ſpi-	4r	.	2B\	-ro	2e\	ſo-	2g#X/	-ſpi-	2b\	-ro
.	.	4E/	ſo-	.	.	.	.	.	.	.	.
2D/	-ro	2A/	-ſpi-	4r	.	4.f\	-ſpi-	2a\	-ro	4r	.
*	*	*	*	*	*	*	*	*	*	*	*ij
.	.	.	.	4d\	ſo-	.	.	.	.	4a\	ſo-
.	.	.	.	.	.	8g\	.	.	.	.	.
=17-	=17-	=17-	=17-	=17-	=17-	=17-	=17-	=17-	=17-	=17-	=17-
!	!	!	!	!	!	!	!	!	!	!LO:SIC:v:t=custos e	!
4r	.	2D/	-ro	2d\	-ſpi-	2a\	-ro	4r	.	2f/	-ſpi-
*	*	*	*	*	*	*	*	*	*ij	*	*
!	!	!	!	!	!	!	!	!LO:SIC:v:t=custos cc	!	!	!
4D\	ſo-	.	.	.	.	.	.	4a\	ſo-	.	.
!	!	!	!	!	!	!	!	!LO:LB:g=original	!	!LO:LB:g=original	!
2A\	-ſpi-	4r	.	2c\	-ro	4r	.	1cc	-ſpi-	2e/	-ro
*	*	*	*ij	*	*	*	*	*	*	*	*Xij
!	!	!LO:SIC:v:t=custos d	!	!	!	!	!	!	!	!	!
.	.	4A/	ſo-	.	.	4e\	ſo-	.	.	.	.
!	!	!LO:LB:g=original	!	!	!	!	!	!	!	!	!
1G	-ro	2.d\	-ſpi-	1r	.	2g\	-ſpi-	.	.	1r	.
.	.	.	.	.	.	2d\	-ro	2b\	-ro	.	.
*	*	*	*	*	*	*	*	*	*Xij	*	*
.	.	4G/	-ro	.	.	.	.	.	.	.	.
*	*	*	*Xij	*	*	*	*	*	*	*	*
=18-	=18-	=18-	=18-	=18-	=18-	=18-	=18-	=18-	=18-	=18-	=18-
2C/	Sen-	0r	.	4r	.	1r	.	0r	.	1r	.
.	.	.	.	4c\	Sen-	.	.	.	.	.	.
4D\	-ten-	.	.	4B\	-ten-	.	.	.	.	.	.
4E\	-do	.	.	4c\	-do	.	.	.	.	.	.
4F\	rad-	.	.	4A\	rad-	2r	.	.	.	2r	.
4D/	-do-	.	.	4B\	-do-	.	.	.	.	.	.
2C/	-piar	.	.	2c\	-piar	4r	.	.	.	2g/	Sen-
.	.	.	.	.	.	4g\	Sen-	.	.	.	.
=19-	=19-	=19-	=19-	=19-	=19-	=19-	=19-	=19-	=19-	=19-	=19-
0r	.	1r	.	0r	.	4f#X\	-ten-	1r	.	4a\	-ten-
.	.	.	.	.	.	4g\	-do	.	.	4b\	-do
.	.	.	.	.	.	4e\	rad-	.	.	4cc\	rad-
.	.	.	.	.	.	4f#X\	-do-	.	.	4a\	-do-
.	.	2G/	Sen-	.	.	2g\	-piar	4r	.	2g/	-piar
.	.	.	.	.	.	.	.	4gny/	Sen-	.	.
.	.	4A/	-ten-	.	.	2r	.	4f#X/	-ten-	2r	.
.	.	4B\	-do	.	.	.	.	4g/	-do	.	.
=20-	=20-	=20-	=20-	=20-	=20-	=20-	=20-	=20-	=20-	=20-	=20-
1r	.	4c\	rad-	2r	.	1r	.	4e/	rad-	2r	.
.	.	4A/	-do-	.	.	.	.	4f#X/	-do-	.	.
.	.	2G/	-piar	4r	.	.	.	2g/	-piar	4r	.
.	.	.	.	4.G/	ſtra-	.	.	.	.	4.dd\	ſtra-
!	!	!	!	!	!	!LO:SIC:v:t=custos e	!	!	!	!	!
1G	ſtra-	1B	ſtra-	.	.	1d	ſtra-	4.dd\	ſtra-	.	.
.	.	.	.	8A\	.	.	.	.	.	8cc\	.
.	.	.	.	8B\	.	.	.	.	.	8b\	.
!	!	!	!	!LO:SIC:v:t=custos d	!	!	!	!	!	!	!
.	.	.	.	8c\	.	.	.	8cc\	.	8a\	.
!	!	!	!	!LO:LB:g=original	!	!	!	!	!	!	!
.	.	.	.	4d\	.	.	.	8b\	.	2g/	.
.	.	.	.	.	.	.	.	8a\	.	.	.
.	.	.	.	4.G/	-li_e	.	.	2g/	.	.	.
!	!	!	!	!	!	!LO:LB:g=original	!	!	!	!	!
=21-	=21-	=21-	=21-	=21-	=21-	=21-	=21-	=21-	=21-	=21-	=21-
1C	-li_e	2c\	-li	.	.	1e	-li	.	.	4e/	-li
.	.	.	.	8E/	fa-	.	.	.	.	.	.
.	.	.	.	2G/	-cel-	.	.	4e/	-li	8ee\	ſtra-
.	.	.	.	.	.	.	.	.	.	8dd\	.
.	.	2r	.	.	.	.	.	8ee\	ſtra-	8cc\	.
.	.	.	.	.	.	.	.	8dd\	.	8b\	.
.	.	.	.	2A/	-le	.	.	8cc\	.	8a\	.
.	.	.	.	.	.	.	.	8b\	.	8g\	.
0D	fa-	4.A/	e	.	.	4r	.	8a\	.	2f/	.
.	.	.	.	.	.	.	.	8g\	.	.	.
.	.	.	.	4.D/	e	4.a\	e	2fny/	.	.	.
.	.	8G/	fa-	.	.	.	.	.	.	.	.
.	.	4F/	-cel-	.	.	.	.	.	.	4.a\	-li_e
.	.	.	.	8E/	fa-	8g\	fa-	.	.	.	.
.	.	4D/	-le	4.F/	-cel-	4fny\	-cel-	4.a\	-li_e	.	.
!	!	!	!	!	!	!	!	!	!	!LO:SIC:v:t=custos f	!
.	.	.	.	.	.	.	.	.	.	8g/	fa-
!	!	!	!	!	!	!	!	!	!	!LO:LB:g=original	!
=22-	=22-	=22-	=22-	=22-	=22-	=22-	=22-	=22-	=22-	=22-	=22-
*	*	*	*ij	*	*	*	*	*	*	*	*
.	.	4.A/	e	.	.	4d\	-le	.	.	4f/	-cel-
!	!	!	!	!	!	!	!	!LO:SIC:v:t=custos f	!	!	!
.	.	.	.	8E/	.	.	.	8g\	fa-	.	.
*	*	*	*	*	*	*	*ij	*	*	*	*
!	!	!	!	!	!	!	!	!LO:LB:g=original	!	!	!
.	.	.	.	8F/	.	4.a\	e	4f/	-cel-	4d/	-le_e
.	.	8G/	fa-	8G/	.	.	.	.	.	.	.
.	.	4F/	-cel-	2A/	.	.	.	4d/	-le	4.dd\	fa-
.	.	.	.	.	.	8g\	fa-	.	.	.	.
.	.	4D/	-le	.	.	4f#X\	-cel-	2dd\	e	.	.
*	*	*	*Xij	*	*	*	*	*	*	*	*
.	.	.	.	.	.	.	.	.	.	8cc\	.
1E	-cel-	4G/	e	1.E	-le	4g\	-le	.	.	4b\	-cel-
*	*	*	*	*	*	*	*Xij	*	*	*	*
.	.	4A\	fa-	.	.	4.e\	e	4cc\	fa-	2a\	.
!	!	!LO:SIC:v:t=custos A	!	!	!	!	!	!	!	!	!
.	.	2B\	-cel-	.	.	.	.	2b\	-cel-	.	.
.	.	.	.	.	.	8d\	fa-	.	.	.	.
.	.	.	.	.	.	4B/	-cel-	.	.	4g#X/	.
!	!	!LO:LB:g=original	!	!	!	!	!	!	!	!	!
=23-	=23-	=23-	=23-	=23-	=23-	=23-	=23-	=23-	=23-	=23-	=23-
1AA	-le	1A	-le	.	.	1e	-le	1cc#X	-le	0a	-le
.	.	.	.	1A	S'io	.	.	.	.	.	.
1r	.	1D	S'io	.	.	2r	.	2r	.	.	.
.	.	.	.	2.d\	ſon	2f#X\	S'io	2a\	S'io	.	.
=24-	=24-	=24-	=24-	=24-	=24-	=24-	=24-	=24-	=24-	=24-	=24-
0r	.	2.G/	ſon	.	.	1g	ſon	2.b\	ſon	4r	.
.	.	.	.	4B\	mi	.	.	.	.	4d/	S'io
.	.	.	.	4.e\	diſ-	.	.	.	.	2.gny/	ſon
.	.	4E/	mi	.	.	.	.	4g/	mi	.	.
.	.	.	.	8d\	.	.	.	.	.	.	.
.	.	1A	diſ-	1c	.	1r	.	1ccny	diſ-	.	.
.	.	.	.	.	.	.	.	.	.	4e/	mi
.	.	.	.	.	.	.	.	.	.	2f#X/	diſ-
=25-	=25-	=25-	=25-	=25-	=25-	=25-	=25-	=25-	=25-	=25-	=25-
2r	.	1G	-ſe	2.d\	-s'_in	4r	.	1b	-ſe	2g/	-ſe
.	.	.	.	.	.	4d\	Sio	.	.	.	.
!LO:SIC:v:t=custos C	!	!	!	!	!	!	!	!	!	!	!
2G\	in	.	.	.	.	2.g\	ſon	.	.	4r	.
.	.	.	.	2G/	ſi-	.	.	.	.	4b\	mi
!LO:LB:g=original	!	!	!	!	!	!	!	!	!	!	!
2C/	ſi-	1r	.	.	.	.	.	2r	.	2ee\	diſ-
!	!	!	!	!LO:SIC:v:t=custos B	!	!	!	!	!	!	!
.	.	.	.	2A/	-mil	4e\	mi	.	.	.	.
!	!	!	!	!	!	!LO:SIC:v:t=custos g	!	!	!	!	!
2D/	-mil	.	.	.	.	2f#X\	diſ-	4r	.	2dd\	-ſe
!	!	!	!	!LO:LB:g=original	!	!	!	!	!	!	!
.	.	.	.	4.B\	lacc'	.	.	4d/	S'io	.	.
!	!	!	!	!	!	!LO:LB:g=original	!	!	!	!	!
=26-	=26-	=26-	=26-	=26-	=26-	=26-	=26-	=26-	=26-	=26-	=26-
2E\	lacc'	2r	.	.	.	8g\	-ſe	2.g/	ſon	4r	.
.	.	.	.	8A/	in-	8fny\	.	.	.	.	.
.	.	.	.	2G/	-uol-	8e\	.	.	.	4g/	S'io
.	.	.	.	.	.	8d\	.	.	.	.	.
2C/	in-	2G/	in	.	.	2e\	.	.	.	2.cc\	ſon
.	.	.	.	4c\	-ta	.	.	4e/	mi	.	.
2AA/	-uol-	2C/	ſi-	1r	.	4r	.	2f#X/	diſ-	.	.
.	.	.	.	.	.	4c/	S'io	.	.	4a\	mi
!	!	!	!	!	!	!	!	!	!	!LO:SIC:v:t=custos cc	!
4GG/	-ta	4D/	-mil	.	.	2.g\	ſon	8g/	-ſe	2b\	diſ-
.	.	.	.	.	.	.	.	8fny/	.	.	.
4G\	S'io	2E/	lacc'	.	.	.	.	8e/	.	.	.
.	.	.	.	.	.	.	.	8d/	.	.	.
!	!	!	!	!	!	!	!	!	!	!LO:LB:g=original	!
=27-	=27-	=27-	=27-	=27-	=27-	=27-	=27-	=27-	=27-	=27-	=27-
2.c\	ſon	.	.	2g\	in	.	.	2e/	.	1cc	-ſe
.	.	4c\	in-	.	.	4e\	mi	.	.	.	.
.	.	2A/	-uol-	2c\	ſi-	2f#X\	diſ-	2r	.	.	.
4A\	mi	.	.	.	.	.	.	.	.	.	.
2B\	diſ-	2G/	-ta	2d\	-mil	2.g\	-s'_in	2r	.	1r	.
2c\	-s'_in	2r	.	2e\	lacc'	.	.	4g/	S'io	.	.
.	.	.	.	.	.	2c/	ſi-	2cc\	ſon	.	.
=28-	=28-	=28-	=28-	=28-	=28-	=28-	=28-	=28-	=28-	=28-	=28-
2F\	ſi-	2r	.	2f\	in-	.	.	.	.	1r	.
!	!	!	!	!	!	!	!	!LO:SIC:v:t=custos b	!	!	!
.	.	.	.	.	.	2d\	-mil	4a\	mi	.	.
!	!	!	!	!	!	!	!	!LO:LB:g=original	!	!	!
2G\	-mil	4r	.	2d\	-uol-	.	.	2b\	diſ-	.	.
.	.	4G/	S'io	.	.	4B/	lacc'	.	.	.	.
2A\	lacc'	2.c\	ſon	8c\	-ta	4e\	in-	4.cc\	-ſe	2r	.
.	.	.	.	8B\	.	.	.	.	.	.	.
.	.	.	.	8A\	.	4.a\	-uol-	.	.	.	.
.	.	.	.	8G/	.	.	.	8b\	.	.	.
2F\	in-	.	.	2A/	.	.	.	2a\	.	2cc\	in-
.	.	.	.	.	.	8g\	.	.	.	.	.
.	.	4A\	mi	.	.	2fny\	.	.	.	.	.
=29-	=29-	=29-	=29-	=29-	=29-	=29-	=29-	=29-	=29-	=29-	=29-
!	!	!LO:SIC:v:t=custos c	!	!	!	!	!	!	!	!	!
2D/	-uol-	2B\	diſ-	00r	.	.	.	4r	.	2dd\	-uol-
.	.	.	.	.	.	4d\	-ta	4dd\	in	.	.
!	!	!LO:LB:g=original	!	!	!	!	!	!	!	!	!
2C/	-ta	4.c\	-ſe	.	.	4r	.	2.g/	ſi-	2ee\	-ta
.	.	.	.	.	.	4g\	in	.	.	.	.
.	.	8d\	.	.	.	.	.	.	.	.	.
1r	.	2e\	.	.	.	2c/	ſi-	.	.	2r	.
.	.	.	.	.	.	.	.	2a\	-mil	.	.
!	!	!	!	!	!	!LO:SIC:v:t=custos e	!	!	!	!	!
.	.	2r	.	.	.	2d\	-mil	.	.	2dd\	in
.	.	.	.	.	.	.	.	2b\	lacc'	.	.
!	!	!	!	!	!	!LO:LB:g=original	!	!	!	!	!
=30-	=30-	=30-	=30-	=30-	=30-	=30-	=30-	=30-	=30-	=30-	=30-
00r	.	0r	.	.	.	1.e	lacc'	.	.	2g\	ſi-
.	.	.	.	.	.	.	.	2cc\	in-	.	.
.	.	.	.	.	.	.	.	.	.	2a\	-mil
.	.	.	.	.	.	.	.	8b\	.	.	.
.	.	.	.	.	.	.	.	8a\	.	.	.
.	.	.	.	.	.	.	.	4g/	.	2b\	lacc'
.	.	.	.	.	.	.	.	4.e/	-uol-	.	.
.	.	.	.	.	.	2c/	in-	.	.	2cc\	in-
.	.	.	.	.	.	.	.	8f/	.	.	.
.	.	.	.	.	.	.	.	2g/	.	.	.
=31-	=31-	=31-	=31-	=31-	=31-	=31-	=31-	=31-	=31-	=31-	=31-
.	.	0r	.	1r	.	1d	-uol-	.	.	1a	-uol-
.	.	.	.	.	.	.	.	8f#X/	.	.	.
.	.	.	.	.	.	.	.	8e/	.	.	.
.	.	.	.	.	.	.	.	2f#X/	.	.	.
.	.	.	.	2r	.	1G	-ta	2g/	-ta	1g	-ta
.	.	.	.	1G/	Tu	.	.	1b\	Tu	.	.
=32-	=32-	=32-	=32-	=32-	=32-	=32-	=32-	=32-	=32-	=32-	=32-
!LO:SIC:v:t=custos C	!	!	!	!	!	!	!	!	!	!	!
1G	Tu	1d	Tu	.	.	0g	Tu	.	.	1b	Tu
.	.	.	.	2r	.	.	.	2r	.	.	.
!LO:LB:g=original	!	!	!	!LO:SIC:v:t=custos c	!	!	!	!	!	!	!
4.C/	ne	4.c\	ne	1G	Tu	.	.	4.ee\	ne	1r	.
8BB/	ſo-	8d\	ſo-	.	.	.	.	8dd\	ſo-	.	.
4C/	-ſpi-	2e\	-ſpi-	.	.	.	.	4cc\	-ſpi-	.	.
4G\	-ra-	.	.	.	.	.	.	4b\	-ra-	.	.
!	!	!	!	!LO:LB:g=original	!	!	!	!	!	!	!
=33-	=33-	=33-	=33-	=33-	=33-	=33-	=33-	=33-	=33-	=33-	=33-
2C/	-rai	4d\	-ra-	4.c\	ne	4.g\	ne	2cc\	-rai	4.ee\	ne
.	.	4e\	-rai	.	.	.	.	.	.	.	.
.	.	.	.	8B\	ſo-	8f\	ſo-	.	.	8dd\	ſo-
!	!	!	!	!	!	!	!	!LO:SIC:v:t=custos ee	!	!	!
2r	.	2r	.	4A/	ſpi-	4c/	-ſpi-	2r	.	4cc\	-ſpi-
.	.	.	.	4G/	-ra-	4d\	-ra-	.	.	4b\	-ra-
*	*	*	*	*	*	*	*	*	*ij	*	*
!	!	!	!	!	!	!	!	!LO:LB:g=original	!	!	!
4.C/	ne	4.c\	ne	1G	-rai	2e\	-rai	4.ee\	ne	2cc\	-rai
8BB/	ſo-	8d\	ſo-	.	.	.	.	8dd\	ſo-	.	.
4C/	-ſpi-	4e\	-ſpi-	.	.	2g\	Tu	4cc\	-ſpi-	2r	.
4G\	-ra-	4d\	-ra-	.	.	.	.	4b\	-ra-	.	.
=34-	=34-	=34-	=34-	=34-	=34-	=34-	=34-	=34-	=34-	=34-	=34-
2C/	-rai	2e\	-rai	4.c\	ne	4.g\	ne	2cc\	-rai	4.ee\	ne
*	*	*	*	*	*	*	*	*	*Xij	*	*
.	.	.	.	8B\	ſo-	8g\	ſo-	.	.	8dd\	ſo-
2r	.	2r	.	4A/	-ſpi-	4c\	-ſpi-	2r	.	4cc\	-ſpi-
.	.	.	.	4G/	-ra-	4d\	-ra-	.	.	4b\	-ra-
2r	.	2r	.	1c	-rai	1e	-rai	2r	.	4.cc\	-rai
.	.	.	.	.	.	.	.	.	.	16b\	.
!	!	!	!	!	!	!	!	!	!	!LO:SIC:v:t=custos g	!
.	.	.	.	.	.	.	.	.	.	16a\	.
!	!	!	!	!	!	!	!	!	!	!LO:LB:g=original	!
2C/	piu	2G/	piu	.	.	.	.	2cc\	piu	2g/	.
=35-	=35-	=35-	=35-	=35-	=35-	=35-	=35-	=35-	=35-	=35-	=35-
2FF/	d'u-	2F/	d'u-	2r	.	2A/	piu	2cc\	d'u-	2r	.
2GG/	-na	2D/	-na	2G/	piu	2d\	d'u-	2b-X\	-na	2g/	piu
0AA	vol-	0A	vol-	2C/	d'u-	4c/	-na	0a	vol-	2g/	d'u-
.	.	.	.	.	.	2e\	vol-	.	.	.	.
.	.	.	.	2D/	-na	.	.	.	.	2fny/	-na
.	.	.	.	.	.	2d\	.	.	.	.	.
=36-	=36-	=36-	=36-	=36-	=36-	=36-	=36-	=36-	=36-	=36-	=36-
.	.	.	.	1E	vol-	.	.	.	.	1e	vol-
.	.	.	.	.	.	8c/	.	.	.	.	.
!	!	!	!	!	!	!LO:SIC:v:t=custos c	!	!	!	!	!
.	.	.	.	.	.	8B/	.	.	.	.	.
!	!	!	!	!	!	!LO:LB:g=original	!	!	!	!	!
.	.	.	.	.	.	2c#X/	.	.	.	.	.
!	!	!LO:SIC:v:t=custos B	!	!	!	!	!	!	!	!	!
1D	-ta	1A	-ta	1D	-ta	0d	-ta	2a\	-ta	1f#X	-ta
.	.	.	.	.	.	.	.	1dd\	Tu	.	.
!	!	!LO:LB:g=original	!	!	!	!	!	!	!	!	!
=37-	=37-	=37-	=37-	=37-	=37-	=37-	=37-	=37-	=37-	=37-	=37-
1G	Tu	1B	Tu	1r	.	.	.	.	.	1g	Tu
.	.	.	.	.	.	.	.	2r	.	.	.
4.C/	ne	4.c\	ne	1G	Tu	1g	Tu	4.ee\	ne	1r	.
!LO:SIC:v:t=custos C	!	!	!	!	!	!	!	!	!	!	!
8BB/	ſo-	8d\	ſo-	.	.	.	.	8dd\	ſo-	.	.
!LO:LB:g=original	!	!	!	!	!	!	!	!	!	!	!
4C/	-ſpi-	4e\	-ſpi-	.	.	.	.	4cc\	-ſpi-	.	.
4G\	-ra-	4d\	-ra-	.	.	.	.	4bny\	-ra-	.	.
=38-	=38-	=38-	=38-	=38-	=38-	=38-	=38-	=38-	=38-	=38-	=38-
2C/	-rai	2e\	-rai	4.c\	ne	4.g\	ne	2cc\	-rai	4.ee\	ne
.	.	.	.	8B\	ſo-	8g\	ſo-	.	.	8dd\	ſo-
2r	.	2r	.	4A/	-ſpi-	4cny\	-ſpi-	2r	.	4cc\	-ſpi-
.	.	.	.	4G/	-ra-	4d\	-ra-	.	.	4b\	-ra-
*	*	*	*	*	*	*	*	*	*ij	*	*
!	!	!	!	!LO:SIC:v:t=custos c	!	!	!	!	!	!	!
4.C/	ne	4.c\	ne	1G	-rai	2e\	-rai	4.ee\	ne	2cc\	-rai
8BB/	ſo-	8d\	ſo-	.	.	.	.	8dd\	ſo-	.	.
4C/	-ſpi-	4e\	-ſpi-	.	.	2g\	Tu	4cc\	-ſpi-	2r	.
4G\	-ra-	4d\	-ra-	.	.	.	.	4b\	-ra-	.	.
!	!	!	!	!LO:LB:g=original	!	!	!	!	!	!	!
=39-	=39-	=39-	=39-	=39-	=39-	=39-	=39-	=39-	=39-	=39-	=39-
2C/	-rai	2e\	-rai	4.c\	ne	4.g\	ne	2cc\	-rai	4.ee\	ne
*	*	*	*	*	*	*	*	*	*Xij	*	*
.	.	.	.	8B\	ſo-	8g\	ſo-	.	.	8dd\	ſo-
2r	.	2r	.	4A/	-ſpi-	4c\	-ſpi-	2r	.	4cc\	-ſpi-
.	.	.	.	4G/	-ra-	4d\	-ra-	.	.	4b\	-ra-
2r	.	2r	.	1c	-rai	1e	-rai	2r	.	4.cc\	-rai
.	.	.	.	.	.	.	.	.	.	16b\	.
.	.	.	.	.	.	.	.	.	.	16a\	.
2C/	piu	2G/	piu	.	.	.	.	2cc\	piu	2g/	.
=40-	=40-	=40-	=40-	=40-	=40-	=40-	=40-	=40-	=40-	=40-	=40-
2FF/	d'u-	2F/	d'u-	2r	.	2A/	piu	2cc\	d'u-	2r	.
2GG/	-na	2D/	-na	2G/	piu	2d\	d'u-	2b-X\	-na	2g/	piu
0AA	vol-	0A	vol-	2C/	d'u-	4c/	-na	0a	vol-	2g/	d'u-
.	.	.	.	.	.	2e\	vol-	.	.	.	.
.	.	.	.	2D/	-na	.	.	.	.	2fny/	-na
.	.	.	.	.	.	2d\	.	.	.	.	.
=41-	=41-	=41-	=41-	=41-	=41-	=41-	=41-	=41-	=41-	=41-	=41-
.	.	.	.	1E	vol-	.	.	.	.	1e	vol-
.	.	.	.	.	.	8c/	.	.	.	.	.
.	.	.	.	.	.	8B/	.	.	.	.	.
.	.	.	.	.	.	2c#X/	.	.	.	.	.
1Dl	-ta.	1Al	-ta.	1Dl	-ta.	1dl	-ta.	1al	-ta.	1f#Xl	-ta.
==	==	==	==	==	==	==	==	==	==	==	==
*-	*-	*-	*-	*-	*-	*-	*-	*-	*-	*-	*-
!!!system-decoration: [(*)]
!!!RDF**kern: l = terminal long
!!!ENC: Andrzej Gręziak
!!!END: 2022-06-12
!!!ENC: Andrzej Kubiczek
!!!END: 2022-07-22
!!!YEC: Copyright 2022 Narodowy Instytut Fryderyka Chopina (https://polishscores.org)
!!!YEM: License CC-BY-4.0 (https://creativecommons.org/licenses/by/4.0)
